X:330
T:Reel 330
M:4/4
K:Amaj
L:1/8
E,2|A,2CA, B,E,G,B,|A,2CE FGAG| (3EFE CA, DCB,D|CA,B,G, A,G,F,E,|A,2CA, B,A,G,E,|A,2CE AGEC|D2FD CEEC|B,A,G,B, A,2z2|EDCB, CECE|FGAF EECE|DB,B,A, B,CB,A,|G,E,E,G, A,2ED| (3CB,A, EC FA,CE|A,G,A,B, CDEC|DEFG AFEC|DB,G,B, A,2z|
